COLOR/action 16/16/align-vertical-top.svg

<svg viewBox="0 0 24 24" xmlns="http://www.w3.org/2000/svg"><g transform="matrix(-1 0 0 -1 24 18)"><path d="m4 4v16h1v-16zm3 0v6h13v-6zm0 10v6h6v-6z" fill="#c43ac4" transform="matrix(0 -1 1 0 0 18)"/><path d="m4 13v1h16v-1z" fill="#e95420"/><g transform="matrix(-1 0 0 -1 24 18)"><path d="m4 4.5v.5h16v-.5zm0 8v.5h6v-.5zm10 7v.5h6v-.5z" opacity=".2"/><path d="m4 4v.5h16v-.5zm0 3v.5h6v-.5zm10 0v.5h6v-.5z" fill="#fff" opacity=".3"/></g></g></svg>

<?xml version="1.0" encoding="UTF-8" standalone="no"?>
<svg
   xmlns:dc="http://purl.org/dc/elements/1.1/"
   xmlns:cc="http://creativecommons.org/ns#"
   xmlns:rdf="http://www.w3.org/1999/02/22-rdf-syntax-ns#"
   xmlns:svg="http://www.w3.org/2000/svg"
   xmlns="http://www.w3.org/2000/svg"
   xmlns:sodipodi="http://sodipodi.sourceforge.net/DTD/sodipodi-0.dtd"
   xmlns:inkscape="http://www.inkscape.org/namespaces/inkscape"
   viewBox="0 0 24 24"
   version="1.1"
   id="svg8"
   sodipodi:docname="align-vertical-top.svg"
   inkscape:version="0.92.4 (5da689c313, 2019-01-14)">
  <metadata
     id="metadata14">
    <rdf:RDF>
      <cc:Work
         rdf:about="">
        <dc:format>image/svg+xml</dc:format>
        <dc:type
           rdf:resource="http://purl.org/dc/dcmitype/StillImage" />
      </cc:Work>
    </rdf:RDF>
  </metadata>
  <defs
     id="defs12" />
  <sodipodi:namedview
     pagecolor="#ffffff"
     bordercolor="#666666"
     borderopacity="1"
     objecttolerance="10"
     gridtolerance="10"
     guidetolerance="10"
     inkscape:pageopacity="0"
     inkscape:pageshadow="2"
     inkscape:window-width="1920"
     inkscape:window-height="1016"
     id="namedview10"
     showgrid="false"
     inkscape:zoom="52.4375"
     inkscape:cx="12"
     inkscape:cy="5.897497"
     inkscape:window-x="0"
     inkscape:window-y="27"
     inkscape:window-maximized="1"
     inkscape:current-layer="g6" />
  <g
     transform="matrix(-1 0 0 -1 24 18)"
     id="g6">
    <path
       d="m4 4v16h1v-16zm3 0v6h13v-6zm0 10v6h6v-6z"
       fill="#c43ac4"
       transform="matrix(0 -1 1 0 0 18)"
       id="path2" />
    <path
       d="m4 13v1h16v-1z"
       fill="#e95420"
       id="path4" />
    <path
       d="M 4 4.5 L 4 5 L 20 5 L 20 4.5 L 4 4.5 z M 4 12.5 L 4 13 L 10 13 L 10 12.5 L 4 12.5 z M 14 19.5 L 14 20 L 20 20 L 20 19.5 L 14 19.5 z "
       transform="rotate(-180,12,9)"
       id="path821"
       style="opacity:0.2" />
    <path
       d="M 4 4 L 4 4.5 L 20 4.5 L 20 4 L 4 4 z M 4 7 L 4 7.5 L 10 7.5 L 10 7 L 4 7 z M 14 7 L 14 7.5 L 20 7.5 L 20 7 L 14 7 z "
       transform="rotate(-180,12,9)"
       id="path828"
       style="fill:#ffffff;fill-opacity:1;opacity:0.3" />
  </g>
</svg>
